X: 11779
T: Elizabeth Kelly's Delight
R: slip jig
M: 9/8
K: Ddorian
|:d3 dce dcA|ded dcA GAc|d3 dce dcA|cdB c2A GAc:|
|:f3 edc dcA|fed ecA GAc|f3 edc dcA|cdB c2A GAc:|

